F[ERK3
CUT[WENN DER SCHNEE VON DEN ALPEN]
REG[Europa, Mitteleuropa, Oesterreich, Steiermark]
KEY[E1485  16  A 3/4]
MEL[-5_-6_  -5__1_1_1_1_  4_.4-7__
    -5_.-6  -5_.-7-7_-7_-6_-5_  3_.31__
    (-5_-6_-7_)  1_.23_2_1_-7_  4_3_1_
    1_-7_-6_  -5_.55_5_4_-7_  1__0__
    (-5_-6_-7_)  1__-3_-5_1_3_  4_.34_.32__
    4_.34_.32__  3_.23_.21__
    -3_-5_1_3_5_3_  6_.54_.32_0
    1  -7_2_4_6_-5_0-7  1__+1_0_ //] >>
FCT[Staende -, Hirten -, Alpen - Lied]
